icon-themes/sifr_svg/cmd/sc_bold.svg

<svg viewBox="0 0 16 16" xmlns="http://www.w3.org/2000/svg"><path d="m4 1v13h3 3c2.209139 0 4-1.790861 4-4s-1.790861-4-4-4h-3v-5zm3 8h3c.552285 0 1 .4477153 1 1 0 .552285-.447715 1-1 1h-3z" fill="#555753"/></svg>

<svg xmlns="http://www.w3.org/2000/svg" viewBox="0 0 16 16">
  <path
     style="fill:#555753"
     d="M 4 1 L 4 14 L 7 14 L 10 14 C 12.209139 14 14 12.209139 14 10 C 14 7.790861 12.209139 6 10 6 L 7 6 L 7 1 L 4 1 z M 7 9 L 10 9 C 10.552285 9 11 9.4477153 11 10 C 11 10.552285 10.552285 11 10 11 L 7 11 L 7 9 z "
     />
</svg>
